public/images/logo-light-bg.svg

<svg fill="none" height="100" viewBox="0 0 100 100" width="100" xmlns="http://www.w3.org/2000/svg"><path clip-rule="evenodd" d="m100 0h-100v100h100zm-46.7977 89.7031c2.3436 0 4.2966-.9375 5.859-2.8123l-1.1718-.9375c-1.0416 1.302-2.3436 2.0311-3.906 2.1874l5.3903-29.5294-1.0937.2344c-1.8228.3125-4.6612.4687-8.5151.4687h-3.3592l-.1562 1.4062h3.281l-2.5779 13.9834c-.8333 4.9997-1.2499 7.8381-1.2499 8.5151 0 1.927.651 3.4894 1.953 4.6872 1.354 1.1979 3.2029 1.7968 5.5465 1.7968zm-2.6561-42.5754c0 1.5624.5468 2.8904 1.6405 3.9841s2.4217 1.6405 3.9841 1.6405 2.8905-.5468 3.9842-1.6405c1.1457-1.0937 1.7186-2.4217 1.7186-3.9841s-.5729-2.8905-1.7186-3.9841c-1.0937-1.1458-2.4218-1.7187-3.9842-1.7187s-2.8904.5729-3.9841 1.7187c-1.0937 1.0936-1.6405 2.4217-1.6405 3.9841zm19.9352.6249-2.1092 11.5618h-3.9841l-.1563 1.4062h3.8279c-2.1353 11.6138-3.2029 18.6706-3.2029 21.1705 0 2.4477.8333 4.3747 2.4999 5.7809 1.6665 1.354 3.7497 2.0311 6.2495 2.0311 6.0413 0 10.0255-4.1143 11.9524-12.343l-1.4061-.4687c-.625 2.604-1.6666 5.0257-3.1249 7.2652-1.4582 2.2394-3.0727 3.3591-4.8434 3.3591s-2.6561-.8333-2.6561-2.4998c0-2.7603 1.302-10.8587 3.906-24.2953h9.765l.1563-1.4062h-9.6869c.8853-4.531 1.6926-8.6192 2.4217-12.2648l-1.0156.2343c-1.8748.3125-4.7392.4687-8.5932.4687z" fill="#1c2c63" fill-rule="evenodd"/></svg>

<svg width="100" height="100" viewBox="0 0 100 100" fill="none" xmlns="http://www.w3.org/2000/svg">
<path fill-rule="evenodd" clip-rule="evenodd" d="M100 0H0V100H100V0ZM53.2023 89.7031C55.5459 89.7031 57.4989 88.7656 59.0613 86.8908L57.8895 85.9533C56.8479 87.2553 55.5459 87.9844 53.9835 88.1407L59.3738 58.6113L58.2801 58.8457C56.4573 59.1582 53.6189 59.3144 49.765 59.3144H46.4058L46.2496 60.7206H49.5306L46.9527 74.704C46.1194 79.7037 45.7028 82.5421 45.7028 83.2191C45.7028 85.1461 46.3538 86.7085 47.6558 87.9063C49.0098 89.1042 50.8587 89.7031 53.2023 89.7031ZM50.5462 47.1277C50.5462 48.6901 51.093 50.0181 52.1867 51.1118C53.2804 52.2055 54.6084 52.7523 56.1708 52.7523C57.7332 52.7523 59.0613 52.2055 60.155 51.1118C61.3007 50.0181 61.8736 48.6901 61.8736 47.1277C61.8736 45.5653 61.3007 44.2372 60.155 43.1436C59.0613 41.9978 57.7332 41.4249 56.1708 41.4249C54.6084 41.4249 53.2804 41.9978 52.1867 43.1436C51.093 44.2372 50.5462 45.5653 50.5462 47.1277ZM70.4814 47.7526L68.3722 59.3144H64.3881L64.2318 60.7206H68.0597C65.9244 72.3344 64.8568 79.3912 64.8568 81.8911C64.8568 84.3388 65.6901 86.2658 67.3567 87.672C69.0232 89.026 71.1064 89.7031 73.6062 89.7031C79.6475 89.7031 83.6317 85.5888 85.5586 77.3601L84.1525 76.8914C83.5275 79.4954 82.4859 81.9171 81.0276 84.1566C79.5694 86.396 77.9549 87.5157 76.1842 87.5157C74.4135 87.5157 73.5281 86.6824 73.5281 85.0159C73.5281 82.2556 74.8301 74.1572 77.4341 60.7206H87.1991L87.3554 59.3144H77.6685C78.5538 54.7834 79.3611 50.6952 80.0902 47.0496L79.0746 47.2839C77.1998 47.5964 74.3354 47.7526 70.4814 47.7526Z" fill="#1C2C63"/>
</svg>
